src/lib/packages/icons/src/assets/filled/chart-bar-vertical.svg

<svg width="24" height="24" viewBox="0 0 24 24" fill="none" xmlns="http://www.w3.org/2000/svg">
<path d="M21 21H4.5C2.958 21 2 20.042 2 18.5V4C2 3.448 2.448 3 3 3C3.552 3 4 3.448 4 4V18.5C4 18.949 4.051 19 4.5 19H21C21.552 19 22 19.448 22 20C22 20.552 21.552 21 21 21ZM8 16V13C8 12.448 7.552 12 7 12C6.448 12 6 12.448 6 13V16C6 16.552 6.448 17 7 17C7.552 17 8 16.552 8 16ZM11 17C10.448 17 10 16.552 10 16V9C10 8.448 10.448 8 11 8C11.552 8 12 8.448 12 9V16C12 16.552 11.552 17 11 17ZM15 17C14.448 17 14 16.552 14 16V11C14 10.448 14.448 10 15 10C15.552 10 16 10.448 16 11V16C16 16.552 15.552 17 15 17ZM19 17C18.448 17 18 16.552 18 16V5C18 4.448 18.448 4 19 4C19.552 4 20 4.448 20 5V16C20 16.552 19.552 17 19 17Z" fill="currentColor"/>
</svg>

<svg xmlns="http://www.w3.org/2000/svg" width="24" height="24" fill="none"><path fill="currentColor" d="M21 21H4.5C2.958 21 2 20.042 2 18.5V4a1 1 0 0 1 2 0v14.5c0 .449.051.5.5.5H21a1 1 0 0 1 0 2ZM8 16v-3a1 1 0 0 0-2 0v3a1 1 0 0 0 2 0Zm3 1a1 1 0 0 1-1-1V9a1 1 0 0 1 2 0v7a1 1 0 0 1-1 1Zm4 0a1 1 0 0 1-1-1v-5a1 1 0 0 1 2 0v5a1 1 0 0 1-1 1Zm4 0a1 1 0 0 1-1-1V5a1 1 0 0 1 2 0v11a1 1 0 0 1-1 1Z"/></svg>
